X:521
T:Count Tallard. (p)1709.PLFD.521
M:6/4
L:1/4
Q:3/4=120
S:Playford, Dancing Master,13th Ed.,1709.
O:England
Z:Chris Partington.
K:C
G|GEGGEG|c3B2A|GEFD2C|D3-D2E/F/|
GEGGEG|c3d3|e/f/gedBG|c3-c2:|
|:g|geggeg|g3g>fe|d>eddBG|d3d>cB|
ABcGFE|FGAD2B|cEFD2C|C3-C2:|
